src/bright/hiso font bright_25A8.svg

<svg xmlns="http://www.w3.org/2000/svg" width="99" height="126" viewBox="0 0 99 126"><path fill="#000101" d="M36 69.362l24.75-12.112v10.372l-24.75 12.098v-10.358zm27-13.462l9.361-4.68v10.34l-9.361 4.69v-10.35zm2.562 7.169l2.279-3.66 2.119 1.29.522-.86-2.111-1.279 2.271-3.641-.851-.529-2.282 3.659-2.106-1.279-.522.85 2.103 1.27-2.271 3.65.849.529zm-17.312 13.931l-12.41 6.17v13.5l12.41-6.17v-13.5zm-12.41 25.912l36.531-18.27v-3.422l-36.531 18.262v3.43zm18.16-80.412l27 13.5v54l-54 27-27-13.5v-54l54-27zm-24 89.65l48-24v-47.3l-48 24v47.3zm21.119-30.96l21.252-10.62v-3.35l-21.252 10.621v3.349zm0 7l21.252-10.62v-3.35l-21.252 10.621v3.349z"/></svg>

<svg xmlns="http://www.w3.org/2000/svg" width="99" height="126"><path fill="#000101" d="M36 69.362L60.75 57.25v10.372L36 79.72V69.362zM63 55.9l9.361-4.68v10.34L63 66.25V55.9zm2.562 7.169l2.279-3.66 2.119 1.29.522-.86-2.111-1.279 2.271-3.641-.851-.529-2.282 3.659-2.106-1.279-.522.85 2.103 1.27-2.271 3.65.849.529zM48.25 77l-12.41 6.17v13.5l12.41-6.17V77zm-12.41 25.912l36.531-18.27V81.22L35.84 99.482v3.43zM54 22.5L81 36v54l-54 27-27-13.5v-54l54-27zm-24 89.65l48-24v-47.3l-48 24v47.3zm21.119-30.96l21.252-10.62v-3.35L51.119 77.841v3.349zm0 7l21.252-10.62v-3.35L51.119 84.841v3.349z"/></svg>
